X: 4
T: Green Linnet, The 
M: 4/4
L: 1/8
R: reel
K: Amaj
|: AG |\
Acae cBAc | B2 GB gdBc | A2 ae cBAc | BGdB cA- :|
|: B/A/G |\
A2 cd ecBA | BGBd gdBc |[1 A2 cd ecBA | BGdB cA :|[2 A2 Bd cedg | ae (3dcB A2 |]
